icons/app-store-fill.svg

<svg viewBox="0 0 24 24" fill="currentColor" xmlns="http://www.w3.org/2000/svg">
    <path d="M12 2C17.5228 2 22 6.47715 22 12C22 17.5228 17.5228 22 12 22C6.47715 22 2 17.5228 2 12C2 6.47715 6.47715 2 12 2ZM8.82258 15.3427C8.42804 14.8663 7.9373 14.6957 7.34401 14.834L7.19355 14.875L6.60484 15.8911C6.37903 16.2863 6.5121 16.7903 6.90726 17.0161C7.26949 17.2231 7.7232 17.1286 7.97023 16.807L8.03226 16.7137L8.82258 15.3427ZM13.2097 8.66129C12.7218 9.06452 12.2298 10.2581 12.9194 11.4476L15.9597 16.7137C16.1895 17.1089 16.6895 17.2419 17.0847 17.0161C17.4469 16.8054 17.5889 16.3677 17.4361 15.9919L17.3871 15.8911L16.5847 14.5H17.7742C18.2298 14.5 18.5968 14.1331 18.5968 13.6774C18.5968 13.2568 18.2841 12.9118 17.8776 12.8612L17.7742 12.8548H15.6331L13.44 9.05741L13.2097 8.66129ZM13.4879 5.61694C13.1257 5.40995 12.672 5.50451 12.4249 5.82608L12.3629 5.91935L11.996 6.55242L11.6371 5.91935C11.4073 5.52419 10.9073 5.39113 10.5121 5.61694C10.1499 5.82762 10.0079 6.26532 10.1606 6.64118L10.2097 6.74194L11.0484 8.19758L8.3629 12.8508H6.26613C5.81048 12.8508 5.44355 13.2177 5.44355 13.6734C5.44355 14.094 5.7562 14.439 6.16268 14.4896L6.26613 14.496H13.746C14.0869 13.8562 13.6854 12.9472 12.9357 12.8579L12.8145 12.8508H10.2621L13.7903 6.74194C14.0161 6.34677 13.8831 5.84274 13.4879 5.61694Z"/>
</svg>

<svg xmlns="http://www.w3.org/2000/svg" viewBox="0 0 24 24">
    <g>
        <path fill="none" d="M0 0h24v24H0z"/>
        <path d="M12 2c5.523 0 10 4.477 10 10s-4.477 10-10 10S2 17.523 2 12 6.477 2 12 2zM8.823 15.343c-.395-.477-.886-.647-1.479-.509l-.15.041-.59 1.016a.823.823 0 0 0 1.366.916l.062-.093.79-1.371zM13.21 8.66c-.488.404-.98 1.597-.29 2.787l3.04 5.266a.824.824 0 0 0 1.476-.722l-.049-.1-.802-1.392h1.19a.82.82 0 0 0 .822-.823.82.82 0 0 0-.72-.816l-.103-.006h-2.14L13.44 9.057l-.23-.396zm.278-3.044a.825.825 0 0 0-1.063.21l-.062.092-.367.633-.359-.633a.824.824 0 0 0-1.476.722l.049.1.838 1.457-2.685 4.653H6.266a.82.82 0 0 0-.822.822c0 .421.312.766.719.817l.103.006h7.48c.34-.64-.06-1.549-.81-1.638l-.121-.007h-2.553l3.528-6.11a.823.823 0 0 0-.302-1.124z"/>
    </g>
</svg>
